icons/assets/dark/indent.svg

<svg width="48" height="48" fill="none" xmlns="http://www.w3.org/2000/svg"><path d="M8 10.5h32m-20 9h20m-20 9h20m-32 9h32m-32-18l4 4.5-4 4.5" stroke="#62646A" stroke-width="3.5" stroke-linecap="round" stroke-linejoin="round"/></svg>

<svg width="48" height="48" viewBox="0 0 48 48" fill="none" xmlns="http://www.w3.org/2000/svg">
<path d="M8 10.5H40M20 19.5H40M20 28.5H40M8 37.5H40M8 19.5L12 24L8 28.5" stroke="#62646A" stroke-width="3.5" stroke-linecap="round" stroke-linejoin="round"/>
</svg>
